X: 12445
T: Farewell To Bally
R: reel
M: 4/4
K: Dmajor
(3Bcd ed cAA2|(3Bcd ef g3 a|fded ed (3Bcd|ea ~a2 aged|
(3Bcd ed cAA2|(3Bcd ef g3 e|cdef gece|dfec d3 z:|
FA~A2 adfa|dfaf bfag|fdBd A2 FA|BdAF EGFE|
DF~F2 A2 FA|dfaf bfag|fdBd A2 FA|BdAG FD D2:|

